symbols/web/high_quality/materialsymbolsrounded/high_quality_wght100gradN25_48px.svg

<svg xmlns="http://www.w3.org/2000/svg" height="48" width="48"><path d="M14.25 29.25q.3 0 .45-.2.15-.2.15-.5V25.1h5.9v3.45q0 .3.2.5t.45.2q.3 0 .45-.2.15-.2.15-.5v-9.2q0-.2-.175-.4t-.475-.2q-.25 0-.425.175t-.175.425v4.5h-5.9v-4.5q0-.2-.175-.4t-.475-.2q-.25 0-.425.175t-.175.425v9.2q0 .3.2.5t.45.2ZM30.2 32.3q.25 0 .45-.175t.2-.475v-2.4h1.45q.9 0 1.5-.6t.6-1.5v-6.3q0-.9-.6-1.5t-1.5-.6h-4.1q-.85 0-1.525.6-.675.6-.675 1.5v6.3q0 .9.675 1.5t1.525.6h1.4v2.4q0 .3.175.475t.425.175ZM28.05 28q-.3 0-.55-.25-.25-.25-.25-.55v-6.4q0-.3.25-.55.25-.25.55-.25h4.3q.3 0 .55.25.25.25.25.55v6.4q0 .3-.25.55-.25.25-.55.25ZM9.3 37.4q-1.1 0-1.9-.8-.8-.8-.8-1.9V13.3q0-1.1.8-1.9.8-.8 1.9-.8h29.4q1.1 0 1.9.8.8.8.8 1.9v21.4q0 1.1-.8 1.9-.8.8-1.9.8Zm0-1.1q-.7 0-1.15-.45-.45-.45-.45-1.15V13.3q0-.7.45-1.15.45-.45 1.15-.45-.7 0-1.15.45-.45.45-.45 1.15v21.4q0 .7.45 1.15.45.45 1.15.45Zm0 0h29.4q.7 0 1.15-.45.45-.45.45-1.15V13.3q0-.7-.45-1.15-.45-.45-1.15-.45H9.3q-.7 0-1.15.45-.45.45-.45 1.15v21.4q0 .7.45 1.15.45.45 1.15.45Z"/></svg>

<svg xmlns="http://www.w3.org/2000/svg" height="48" width="48"><path d="M14.25 29.25Q14.55 29.25 14.7 29.05Q14.85 28.85 14.85 28.55V25.1H20.75V28.55Q20.75 28.85 20.95 29.05Q21.15 29.25 21.4 29.25Q21.7 29.25 21.85 29.05Q22 28.85 22 28.55V19.35Q22 19.15 21.825 18.95Q21.65 18.75 21.35 18.75Q21.1 18.75 20.925 18.925Q20.75 19.1 20.75 19.35V23.85H14.85V19.35Q14.85 19.15 14.675 18.95Q14.5 18.75 14.2 18.75Q13.95 18.75 13.775 18.925Q13.6 19.1 13.6 19.35V28.55Q13.6 28.85 13.8 29.05Q14 29.25 14.25 29.25ZM30.2 32.3Q30.45 32.3 30.65 32.125Q30.85 31.95 30.85 31.65V29.25H32.3Q33.2 29.25 33.8 28.65Q34.4 28.05 34.4 27.15V20.85Q34.4 19.95 33.8 19.35Q33.2 18.75 32.3 18.75H28.2Q27.35 18.75 26.675 19.35Q26 19.95 26 20.85V27.15Q26 28.05 26.675 28.65Q27.35 29.25 28.2 29.25H29.6V31.65Q29.6 31.95 29.775 32.125Q29.95 32.3 30.2 32.3ZM28.05 28Q27.75 28 27.5 27.75Q27.25 27.5 27.25 27.2V20.8Q27.25 20.5 27.5 20.25Q27.75 20 28.05 20H32.35Q32.65 20 32.9 20.25Q33.15 20.5 33.15 20.8V27.2Q33.15 27.5 32.9 27.75Q32.65 28 32.35 28ZM9.3 37.4Q8.2 37.4 7.4 36.6Q6.6 35.8 6.6 34.7V13.3Q6.6 12.2 7.4 11.4Q8.2 10.6 9.3 10.6H38.7Q39.8 10.6 40.6 11.4Q41.4 12.2 41.4 13.3V34.7Q41.4 35.8 40.6 36.6Q39.8 37.4 38.7 37.4ZM9.3 36.3Q8.6 36.3 8.15 35.85Q7.7 35.4 7.7 34.7V13.3Q7.7 12.6 8.15 12.15Q8.6 11.7 9.3 11.7Q8.6 11.7 8.15 12.15Q7.7 12.6 7.7 13.3V34.7Q7.7 35.4 8.15 35.85Q8.6 36.3 9.3 36.3ZM9.3 36.3H38.7Q39.4 36.3 39.85 35.85Q40.3 35.4 40.3 34.7V13.3Q40.3 12.6 39.85 12.15Q39.4 11.7 38.7 11.7H9.3Q8.6 11.7 8.15 12.15Q7.7 12.6 7.7 13.3V34.7Q7.7 35.4 8.15 35.85Q8.6 36.3 9.3 36.3Z"/></svg>
